Obsidian/status/16s/printer-remote.svg

<svg height="16" width="16" xmlns="http://www.w3.org/2000/svg"><g fill="#bebebe"><path d="m-15.5 1c-.831 0-1.5.669-1.5 1.5v1.0625 3.46875h-.53125c-.831 0-1.5.669-1.5 1.5v3.03125c0 .831.669 1.5 1.5 1.5h.53125v.125.3125c0 .831.669 1.5 1.5 1.5h7c.831 0 1.5-.669 1.5-1.5v-.3125-.125h.53125c.831 0 1.5-.669 1.5-1.5v-3.0625c0-.8310001-.669-1.5-1.5-1.5h-.53125v-1.3125-3.1875c0-.831-.669-1.5-1.5-1.5zm1 2h5c.277 0 .5.223.5.5v4.5h-6v-4.5c0-.277.223-.5.5-.5zm.5 1v1h4.010835v-1zm0 2v1h3v-1zm7.5 3c.276-.0000002.5.224.5.5 0 .2759998-.224.5-.5.5-.276-.0000002-.5-.224-.5-.5 0-.2760002.224-.5.5-.5zm-8.5 3h6v.5c0 .277-.223.5-.5.5h-5c-.277 0-.5-.223-.5-.5z"/><path d="m3.5 0c-.831 0-1.5.669-1.5 1.5v4.5h-.5c-.831 0-1.5.669-1.5 1.5v4c0 .831.669 1.5 1.5 1.5h.5v1.5c0 .831.669 1.5 1.5 1.5h9c.831 0 1.5-.669 1.5-1.5v-1.5h.5c.831 0 1.5-.669 1.5-1.5v-4c0-.830999-.669-1.5-1.5-1.5h-.46875-.03125v-4.5c0-.831-.669-1.5-1.5-1.5zm1 2h7c.277 0 .5.223.5.5v3.5 1h-8v-1-3.5c0-.277.223-.5.5-.5zm.5 1v1h6.03125v-1zm0 2v1h4v-1zm6.5 4c.276 0 .5.224.5.5.000001.276-.224.5-.5.5s-.5-.224-.5-.5.224-.5.5-.5zm2 0c.276001 0 .5.224.5.5.000001.276-.224.5-.5.5-.275999 0-.5-.224-.5-.5.000001-.276.224-.5.5-.5zm-9.5 3h8v1 .5c0 .277-.223.5-.5.5h-7c-.277 0-.5-.223-.5-.5v-.5z"/></g></svg>

<?xml version="1.0" encoding="UTF-8" standalone="no"?>
<svg
   xmlns:dc="http://purl.org/dc/elements/1.1/"
   xmlns:cc="http://creativecommons.org/ns#"
   xmlns:rdf="http://www.w3.org/1999/02/22-rdf-syntax-ns#"
   xmlns:svg="http://www.w3.org/2000/svg"
   xmlns="http://www.w3.org/2000/svg"
   style="display:inline"
   version="1.0"
   id="svg2"
   height="16"
   width="16">
  <defs
     id="defs4" />
  <metadata
     id="metadata7">
    <rdf:RDF>
      <cc:Work
         rdf:about="">
        <dc:format>image/svg+xml</dc:format>
        <dc:type
           rdf:resource="http://purl.org/dc/dcmitype/StillImage" />
        <dc:title></dc:title>
      </cc:Work>
    </rdf:RDF>
  </metadata>
  <g
     id="layer1"
     style="display:inline">
    <path
       id="Symbol"
       d="M -15.5,1 C -16.331,1 -17,1.669 -17,2.5 l 0,1.0625 0,3.46875 -0.53125,0 c -0.831,0 -1.5,0.669 -1.5,1.5 l 0,3.03125 c 0,0.831 0.669,1.5 1.5,1.5 l 0.53125,0 0,0.125 0,0.3125 c 0,0.831 0.669,1.5 1.5,1.5 l 7,0 c 0.831,0 1.5,-0.669 1.5,-1.5 l 0,-0.3125 0,-0.125 0.53125,0 c 0.831,0 1.5,-0.669 1.5,-1.5 l 0,-3.0625 c 0,-0.8310001 -0.669,-1.5 -1.5,-1.5 L -7,7 -7,5.6875 -7,2.5 C -7,1.669 -7.669,1 -8.5,1 l -7,0 z m 1,2 5,0 C -9.223,3 -9,3.223 -9,3.5 l 0,4.5 -6,0 0,-4.5 C -15,3.223 -14.777,3 -14.5,3 z m 0.5,1 0,1 4.010835,0 0,-1 L -14,4 z m 0,2 0,1 3,0 0,-1 -3,0 z m 7.5,3 c 0.276,-2e-7 0.5,0.224 0.5,0.5 C -6,9.7759998 -6.224,10 -6.5,10 -6.776,9.9999998 -7,9.776 -7,9.5 -7,9.2239998 -6.776,9 -6.5,9 z m -8.5,3 6,0 0,0.5 c 0,0.277 -0.223,0.5 -0.5,0.5 l -5,0 c -0.277,0 -0.5,-0.223 -0.5,-0.5 l 0,-0.5 z"
       style="fill:#bebebe;fill-opacity:1;stroke:none;display:inline" />
    <path
       id="Symbol-4"
       d="M 3.5,0 C 2.669,0 2,0.669 2,1.5 L 2,6 1.5,6 C 0.669,6 0,6.669 0,7.5 l 0,4 C 0,12.331 0.669,13 1.5,13 L 2,13 2,14.5 C 2,15.331 2.669,16 3.5,16 l 9,0 c 0.831,0 1.5,-0.669 1.5,-1.5 l 0,-1.5 0.5,0 c 0.831,0 1.5,-0.669 1.5,-1.5 l 0,-4 C 16,6.669001 15.331,6 14.5,6 L 14.03125,6 14,6 14,1.5 C 14,0.669 13.331,0 12.5,0 z m 1,2 7,0 C 11.777,2 12,2.223 12,2.5 L 12,6 12,7 4,7 4,6 4,2.5 C 4,2.223 4.223,2 4.5,2 z m 0.5,1 0,1 6.03125,0 0,-1 z M 5,5 5,6 9,6 9,5 z m 6.5,4 C 11.776,9 12,9.224 12,9.5 12.000001,9.776 11.776,10 11.5,10 11.224,10 11,9.776 11,9.5 11,9.224 11.224,9 11.5,9 z m 2,0 C 13.776001,9 14,9.224 14,9.5 14.000001,9.776 13.776,10 13.5,10 13.224001,10 13,9.776 13,9.5 13.000001,9.224 13.224,9 13.5,9 z m -9.5,3 8,0 0,1 0,0.5 c 0,0.277 -0.223,0.5 -0.5,0.5 l -7,0 C 4.223,14 4,13.777 4,13.5 L 4,13 z"
       style="fill:#bebebe;fill-opacity:1;stroke:none;display:inline" />
  </g>
</svg>
